layout/admin/dist/assets/admin/img/icons/tags.svg

<svg width="20" height="20" viewBox="0 0 20 20" fill="none" xmlns="http://www.w3.org/2000/svg">
<path d="M19.9994 8.75066L19.3046 1.41306C19.2694 1.0328 18.9666 0.732352 18.5863 0.694795L11.2487 0H11.2394C11.1642 0 11.1056 0.0234728 11.061 0.0680712L0.0686448 11.0604C0.0468847 11.0821 0.0296209 11.1079 0.0178419 11.1363C0.0060629 11.1647 0 11.1951 0 11.2259C0 11.2566 0.0060629 11.2871 0.0178419 11.3154C0.0296209 11.3438 0.0468847 11.3696 0.0686448 11.3914L8.60805 19.9308C8.65265 19.9754 8.71133 19.9988 8.77471 19.9988C8.83809 19.9988 8.89677 19.9754 8.94137 19.9308L19.9337 8.93845C19.9806 8.88915 20.0041 8.82108 19.9994 8.75066V8.75066ZM14.3894 7.06532C13.5608 7.06532 12.8871 6.39165 12.8871 5.56306C12.8871 4.73447 13.5608 4.0608 14.3894 4.0608C15.218 4.0608 15.8917 4.73447 15.8917 5.56306C15.8917 6.39165 15.218 7.06532 14.3894 7.06532Z" fill="white"/>
</svg>

<svg width="20" height="20" viewBox="0 0 20 20" fill="none" xmlns="http://www.w3.org/2000/svg"><path d="M20 8.75l-.695-7.337a.798.798 0 00-.719-.718L11.25 0h-.01a.24.24 0 00-.178.068L.069 11.06a.234.234 0 000 .331l8.54 8.54a.232.232 0 00.166.068.232.232 0 00.166-.068L19.934 8.938a.247.247 0 00.065-.187zm-5.61-1.685a1.504 1.504 0 01-1.503-1.502 1.503 1.503 0 013.005 0c0 .829-.674 1.502-1.503 1.502z" fill="#fff"/></svg>
